X: 16
T:The Queen of Hearts
M:6/8
L:1/8
K:D
"D" d'3 "A"c'3 | "G"b3 "D"a3 | "G"gfe "D"fed | "G"edB "A"A3 | "D" d'3 "A
"c'3 | "G"b3 "D"a3 | "G"gfe "D"fed  | "A"eac
 "D"d3 :||
"B""D" DFA AFA | "D" Ade fed | "Em"EFG GAB | "Em"Bef g2 e | "D"Ade f2 d
| "Em"Bef g2 e | "D"fed"G" g
2 f |  "A"eac "D"d3 :||
